X:3081
T:Schottis efter Karl-Magnus Olsson, Ringamåla
M:2/4
L:1/32
Q:75 
K:D
O:Ringamåla, Blekinge
R:Schottis
F3DF3A G3EG3A | F3Ad3e f4A4 | G3ec3B A3BA3G | F3ED3E F4A,4 | 
F3DF3A G3EG3A | F3Ad3e f4A4 | G3ec3B A3gf3e | d4d4 d8 :| 
|: G4G3B d4c3B | A3BA3G F4F4 | G3AG3F E3Ac3e | d3ef3d A8 | 
 G4G3B d4c3B | A3BA3G F4F4 | G3AG3F E3Ac3e | d4d4 d8 :| 
(:musicend:)
(:music:)
